!!!Melodie: eigene
!!!Typ: Lied
**kern	**silbe	**silbe	**silbe	**silbe	**silbe	**silbe	**silbe	**silbe	**silbe	**silbe	**silbe	**silbe	**silbe	**silbe	**silbe	**silbe	**silbe	**silbe	**silbe	**silbe
*clefG2	*lang:DE	*lang:DE	*lang:DE	*lang:DE	*lang:DE	*lang:DE	*lang:DE	*lang:DE	*lang:DE	*lang:DE	*lang:DE	*lang:DE	*lang:DE	*lang:DE	*lang:DE	*lang:DE	*lang:DE	*lang:DE	*lang:DE	*lang:DE
*k[b-]	*	*	*	*	*	*	*	*	*	*	*	*	*	*	*	*	*	*	*	*
*M4/4	*	*	*	*	*	*	*	*	*	*	*	*	*	*	*	*	*	*	*	*
*met(c)	*	*	*	*	*	*	*	*	*	*	*	*	*	*	*	*	*	*	*	*
4r	%	%	%	%	%	%	%	%	%	%	%	%	%	%	%	%	%	%	%	%
4a	Er#	ein	Will#	will#	O	zu	ist	noch	Du	du	O	du	O	wirf	O	mein	Sag	mein	Lob,	dass
4f	#mun#	klei#	#komm'	#komm'	gro#	kom#	doch	hast	Fürst	klu#	gro#	hast	blei#	dei#	lie#	Bru#	an,	ed#	Preis	du
4g	#t're	#nes	O	O	#ßer	#men	Herr	du	und	#ger	#ßes	den	#cher	#nen	#bes	#der,	mein	#ler	und	mein
=	=	=	=	=	=	=	=	=	=	=	=	=	=	=	=	=	=	=	=	=
8La	dich,	Kind,	sü#	Je#	Gott!	in	Je#	sie	Herr#	Rat	Werk,	Hei#	Mond,	Glanz	Kind,	den	Her#	Zweig	Dank,	Bru#
8Jb	|	|	|	|	|	|	|	|	|	|	|	|	|	|	|	|	|	|	|	|
4cc	mein	das	#ßer	#su	wie	die	#su	dir	#scher	und	O	#land	halt	zum	O	ich	#zens#	aus	Herr	#der
4cc	schwa#	Va#	Bräu#	Got#	konnt’	Welt	dei#	selbst	die#	tap#	Wun#	her#	ei#	Stall	sü#	lie#	#bräu#	Ja#	Je#	‘wor#
4b	#cher	#ter	#ti#	#tes	es	hi#	#ne	ver#	#ser	#f'rer	#der#	#ge#	#ligst	hi#	#ßer	#ber	#ti#	#kobs	#su	#den
=	=	=	=	=	=	=	=	=	=	=	=	=	=	=	=	=	=	=	=	=
2;cc	Geist,	heißt,	#gam,	Lamm!	sein,	#nein,	Braut	#traut	Welt,	Held,	#nacht	#bracht,	ein	#nein,	Knab’,	hab’,	#gam,	Stamm,	Christ,	bist,
4r	=	=	=	=	=	=	=	=	=	=	=	=	=	=	=	=	=	=	=	=
4a	und	mit	du	ich	dein	da	ganz	am	du	du	der#	der	den	Gott	hold#	als	mein	was	sei	und
=	=	=	=	=	=	=	=	=	=	=	=	=	=	=	=	=	=	=	=	=
4b-	tra#	Freu#	Kö#	will	Him#	nichts	arm	Kreuz	Frie#	star#	#glei#	al#	blas#	soll	#se#	al#	Hof#	soll	dir	hast
4a	#ge	#den	#nig	dein	#mel#	denn	und	in	#dens#	#ker	#chen	#les	#sen	ge#	#lig	#le	#fnung,	ich	von	die
4g	groß	zu	al#	Lob	#reich	Neid	vol#	To#	#wie#	Höl#	nie	ü#	Schein	#säu#	von	Schätz’	Freud	dir	mir	Welt
8La	Ver#	em#	#ler	ver#	zu	und	#ler	#des#	#der#	#len#	ge#	#ber#	auf	#get	Ge#	auf	und	doch	ge#	be#
8Jb-	|	|	|	|	|	|	|	|	|	|	|	|	|	|	|	|	|	|	|	|
=	=	=	=	=	=	=	=	=	=	=	=	=	=	=	=	=	=	=	=	=
(4a	#lan#	#pfan#	Eh#	#meh#	las#	Has#	Schan#	#ban#	#brin#	#zwin#	#fun#	#wun#	Er#	wer#	#bär#	Er#	Le#	ge#	#sun#	#zwun#
8Lg	|	|	|	|	|	|	|	|	|	|	|	|	|	|	|	|	|	|	|	|
8Jf)	|	|	|	|	|	|	|	|	|	|	|	|	|	|	|	|	|	|	|	|
2;f	#gen,	#gen.	#ren!	#ren:	#sen,	#sen?	#den;	#den!	#ger,	#ger!	#den!	#den:	#den,	#den,	#den,	#den!	#ben,	#ben?	#gen,	#gen;
=:	=	=	=	=	=	=	=	=	=	=	=	=	=	=	=	=	=	=	=	=
4r	.	%	.	%	.	%	.	%	.	%	.	%	.	%	.	%	.	%	.	%
4g	.	Dies	.	ich	.	wie	.	ist	.	wie	.	Du	.	ihr	.	Komm,	.	ach	.	hilf,
4g	.	ist	.	will	.	kon#	.	sie	.	ist	.	hast	.	hel#	.	Schön#	.	nimm	.	dass
4a	.	die	.	dir	.	#ntest	.	doch	.	es	.	ge#	.	#len	.	#ster,	.	von	.	ich
=	=	=	=	=	=	=	=	=	=	=	=	=	=	=	=	=	=	=	=	=
4b-	.	Nacht,	.	all	.	du	.	nichts	.	mög#	.	#bracht	.	Ster#	.	in	.	mir	.	dei#
4b-	.	da#	.	mein	.	die	.	als	.	#lich,	.	den	.	#ne	.	mein	.	Leib,	.	#ne
4a	.	#rin	.	le#	.	gro#	.	Ü#	.	dass	.	star#	.	ste#	.	Herz	.	Seel’	.	Gü#
4a	.	es	.	#ben#	.	#ße	.	#ber#	.	du	.	#ken	.	#het	.	he#	.	und	.	#tig#
=	=	=	=	=	=	=	=	=	=	=	=	=	=	=	=	=	=	=	=	=
2;g	.	kam,	.	#lang	.	Macht,	.	#druß,	.	dich	.	Mann,	.	still	.	#rein,	.	Geist	.	#keit
4r	.	%	.	%	.	%	.	%	.	%	.	%	.	%	.	%	.	%	.	%
4a	.	und	.	von	.	dein	.	Flucht,	.	er#	.	der	.	und	.	komm	.	ja	.	stets
=	=	=	=	=	=	=	=	=	=	=	=	=	=	=	=	=	=	=	=	=
4a	.	mensch#	.	Her#	.	Kö#	.	Un#	.	#nied#	.	Feu’r	.	horcht	.	ei#	.	al#	.	preis’
4a	.	#lich'	.	#zen	.	#nig#	.	#flaht,	.	#rig#	.	und	.	was	.	#ligst,	.	#les	.	in
4dd	.	We#	.	sa#	.	#reich,	.	Tod	.	#est	.	Wol#	.	eu#	.	lass	.	was	.	die#
4dd	.	#sen	.	#gen	.	der	.	und	.	so	.	#ken	.	#er	.	die	.	Mensch	.	#ser
=	=	=	=	=	=	=	=	=	=	=	=	=	=	=	=	=	=	=	=	=
4dd	.	an	.	Preis	.	Freu#	.	Fin#	.	jäm#	.	zwin#	.	Schöp#	.	Krip#	.	ist	.	Gna#
4cc#	.	sich	.	und	.	#den#	.	#ster#	.	#mer#	.	#gen	.	#fer	.	#pe	.	und	.	#den#
2;dd	.	nahm,	.	Dank,	.	#pracht,	.	#nis;	.	#lich,	.	kann,	.	will,	.	sein:	.	heißt:	.	#zeit,
=	=	=	=	=	=	=	=	=	=	=	=	=	=	=	=	=	=	=	=	=
4r	.	%	.	%	.	%	.	%	.	%	.	%	.	%	.	%	.	%	.	%
4ee	.	da#	.	dass	.	ja	.	noch	.	als	.	vor	.	der	.	komm,	.	ich	.	und
4ff	.	#durch	.	du,	.	dein	.	darfst	.	wä#	.	dem	.	schwach	.	komm,	.	will	.	mög’
4cc	.	die	.	da	.	er#	.	du	.	#rest	.	die	.	und	.	ich	.	mich	.	her#
=	=	=	=	=	=	=	=	=	=	=	=	=	=	=	=	=	=	=	=	=
4dd	.	Welt	.	wir	.	#wünsch#	.	ih#	.	du	.	Him#	.	un#	.	will	.	ganz	.	#nach
(4cc	.	in	.	ver#	.	#tes	.	#ret#	.	im	.	#mel	.	#ge#	.	bei#	.	ver#	.	dort
4b-)	.	|	.	|	.	|	.	|	.	|	.	|	.	|	.	|	.	|	.	|
4a	.	Treu#	.	#lo#	.	Le#	.	#we#	.	Or#	.	zit#	.	#wie#	.	#zei#	.	#schrei#	.	o#
=	=	=	=	=	=	=	=	=	=	=	=	=	=	=	=	=	=	=	=	=
2;g	.	#en	.	#ren	.	#ben,	.	#gen	.	#den	.	#tern	.	#get,	.	#ten	.	#ben,	.	#ben
4r	.	%	.	%	.	%	.	%	.	%	.	%	.	%	.	%	.	%	.	%
4cc	.	als	.	für	.	für	.	das	.	der	.	und	.	in	.	dein	.	dir	.	in
=	=	=	=	=	=	=	=	=	=	=	=	=	=	=	=	=	=	=	=	=
4cc	.	sei#	.	uns	.	sol#	.	Szep#	.	Bett#	.	al#	.	ei#	.	La#	.	e#	.	E#
4a	.	#ne	.	bist	.	#che	.	#ter	.	#ler,	.	#le	.	#nem	.	#ger	.	#wig	.	#wig#
4b-	.	Braut	.	Mensch	.	Feind’	.	von	.	Mensch	.	Berg’	.	Kripp#	.	dir	.	treu	.	#keit
8Lcc	.	zu	.	ge#	.	hin#	.	dir	.	ge#	.	er#	.	#lein	.	be#	.	zu	.	dich
8Jb-	.	|	.	|	.	|	.	|	.	|	.	|	.	|	.	|	.	|	.	|
=	=	=	=	=	=	=	=	=	=	=	=	=	=	=	=	=	=	=	=	=
(4a	.	frei#	.	#bo#	.	#ge#	.	le#	.	#wor#	.	#schüt#	.	lie#	.	#rei#	.	blei#	.	lo#
4g)	.	|	.	|	.	|	.	|	.	|	.	|	.	|	.	|	.	|	.	|
2;f	.	#en.	.	#ren.	.	#ben?	.	#gen.	.	#den?	.	#tern.	.	#get.	.	#ten.	.	#ben.	.	#ben.
==	==	==	==	==	==	==	==	==	==	==	==	==	==	==	==	==	==	==	==	==
*-	*-	*-	*-	*-	*-	*-	*-	*-	*-	*-	*-	*-	*-	*-	*-	*-	*-	*-	*-	*-
